X: 63
T: The Morpeth Rant v.1
P: piffero primo a0673
O: trad
%R: reel
F: http://ancients.sudburymuster.org/mus/sng/pdf/morpethC0.pdf
Z: 2020 John Chambers <jc:trillian.mit.edu>
M: 2/4
L: 1/16
K: D
A2 |\
d2AG FDFA | BGBd cAce | f2fd gfed | c2e2 e2 (3ABc |\
d2AG FDFA |
BGBd cAce | f2fd gfed | A2d2 d2 :: A2 |\
dfaf dfaf | gfef g2ef |
gfed cdeg | fefg f2B2 |\
dfaf dfaf | gfef g2ef | gfed caag | f2d2 d2 :|


